X: 4
T: Beth Cohen's, low octave
C: Larry Unger
M: C|
L: 1/8
R: reel, hora
K:Am	% or A freygish
|:\
"A"A,_B,^CD EFED | EGFE "Bb"FED^C |\
[1,3 "A"A,_B,^CD EFED | EFED "Bb"E2EE :|
[2,4 "A"D^C_B,D "Bb"CB,A,G, | "A"A,2 G,2 A,2 z2 ::\
"A"A,2EA, "Bb"_B,2ED | "A"^CDE2 -EGFE |\
A,2EA, "Bb"_B,2ED |
"Gm"^C_B, G,2-G,DCB, ||\
"A"A,2EA, "Bb"_B,2ED | "A"^CDEG A3_B |\
A_BAG "Gm"FED^C |[1 "A"^C6 z2 :|[2 "A"A6 z2 |]

